X:559
T: "Der Blick"
N: Z1239
O: Europa, Mitteleuropa, Oesterreich
R: Liebes - Lied
M: 3/4
L: 1/8
K: G
d2 | ^efc2A2 | fgB2G2 |
BcF2D2 | G2
B2d2 | ^efc2A2 | fg
B2G2 | BcF2D2 | G4

@@@ Tune index: 10317
